www/assets/icons/data_thresholding.svg

<svg xmlns="http://www.w3.org/2000/svg" width="24" height="24" viewBox="0 0 24 24" fill='currentColor'><path d="M19 3H5c-1.1 0-2 .9-2 2v14c0 1.1.9 2 2 2h14c1.1 0 2-.9 2-2V5c0-1.1-.9-2-2-2m-8.33 5.17 2 2 3.67-3.67 1.41 1.41L12.67 13l-2-2-3 3-1.41-1.41zM5 16h1.72L5 17.72zm.84 3 3-3h1.83l-3 3zm3.96 0 3-3h1.62l-3 3zm3.73 0 3-3h1.62l-3 3zM19 19h-1.73L19 17.27z"/></svg>

<svg width="24" height="24" viewBox="0 0 24 24" xmlns="http://www.w3.org/2000/svg" fill='currentColor'><path d="M19 3H5C3.9 3 3 3.9 3 5V19C3 20.1 3.9 21 5 21H19C20.1 21 21 20.1 21 19V5C21 3.9 20.1 3 19 3ZM10.67 8.17L12.67 10.17L16.34 6.5L17.75 7.91L12.67 13L10.67 11L7.67 14L6.26 12.59L10.67 8.17ZM5 16H6.72L5 17.72V16ZM5.84 19L8.84 16H10.67L7.67 19H5.84ZM9.8 19L12.8 16H14.42L11.42 19H9.8ZM13.53 19L16.53 16H18.15L15.15 19H13.53ZM19 19H17.27L19 17.27V19Z"/></svg>
